dist/images/js.svg

<svg width="35" height="35" viewBox="0 0 35 35" fill="none" xmlns="http://www.w3.org/2000/svg">
<path d="M0 0V34.4H34.4V0H0ZM18.73 25.79C18.73 30.02 16.68 31.43 13.64 31.43C12.8455 31.4289 12.0561 31.3041 11.3 31.06L11.64 28.8C12.1935 28.9896 12.775 29.0843 13.36 29.08C14.96 29.08 15.93 28.36 15.93 25.7V15.86H18.73V25.79ZM25.25 31.41C23.8099 31.4127 22.3901 31.0698 21.11 30.41L21.73 28.09C22.8603 28.7275 24.1325 29.0713 25.43 29.09C27.2 29.1 28.2 28.26 28.2 27.01C28.2 25.76 27.44 25.2 25.5 24.47C22.97 23.57 21.36 22.21 21.36 20.02C21.36 17.51 23.45 15.62 26.78 15.62C28.0461 15.5814 29.3034 15.8418 30.45 16.38L29.78 18.63C28.8325 18.1482 27.783 17.9012 26.72 17.91C24.94 17.91 24.19 18.85 24.19 19.75C24.19 20.93 25.08 21.48 27.12 22.26C29.78 23.26 31.06 24.61 31.06 26.81C31.06 29.28 29.2 31.41 25.25 31.41Z" fill="white"/>
</svg>

<svg width="35" height="35" fill="none" xmlns="http://www.w3.org/2000/svg"><path d="M0 0v34.4h34.4V0H0zm18.73 25.79c0 4.23-2.05 5.64-5.09 5.64a7.65 7.65 0 01-2.34-.37l.34-2.26a5.19 5.19 0 001.72.28c1.6 0 2.57-.72 2.57-3.38v-9.84h2.8v9.93zm6.52 5.62a9 9 0 01-4.14-1l.62-2.32a7.76 7.76 0 003.7 1c1.77.01 2.77-.83 2.77-2.08s-.76-1.81-2.7-2.54c-2.53-.9-4.14-2.26-4.14-4.45 0-2.51 2.09-4.4 5.42-4.4a8.06 8.06 0 013.67.76l-.67 2.25a6.63 6.63 0 00-3.06-.72c-1.78 0-2.53.94-2.53 1.84 0 1.18.89 1.73 2.93 2.51 2.66 1 3.94 2.35 3.94 4.55 0 2.47-1.86 4.6-5.81 4.6z" fill="#fff"/></svg>
